src/images/home.svg

<svg width="20" height="18" viewBox="0 0 20 18" fill="none" xmlns="http://www.w3.org/2000/svg">
<path d="M2.71946 17.4131C2.71946 17.4131 2.7017 17.8602 3.13841 17.8602C3.68171 17.8602 8.17986 17.8543 8.17986 17.8543L8.18726 13.7232C8.18726 13.7232 8.1162 13.0423 8.7772 13.0423H10.869C11.6506 13.0423 11.6025 13.7232 11.6025 13.7232L11.5936 17.8409C11.5936 17.8409 15.8586 17.8409 16.5285 17.8409C17.0829 17.8409 17.0577 17.2843 17.0577 17.2843V9.66846L10.1029 3.48193L2.71946 9.66846V17.4131Z" fill="white"/>
<path d="M0 9.09252C0 9.09252 0.626943 10.248 1.99408 9.09252L10.1643 2.1806L17.8246 9.04959C19.4071 10.191 20 9.04959 20 9.04959L10.1643 0.139893L0 9.09252Z" fill="white"/>
<path d="M17.6388 2.16431H15.6684L15.6765 4.55365L17.6388 6.21834V2.16431Z" fill="white"/>
</svg>

<svg width="20" height="18" fill="none" xmlns="http://www.w3.org/2000/svg"><path d="M2.72 17.413s-.018.447.418.447l5.042-.006.007-4.13s-.07-.682.59-.682h2.092c.782 0 .733.681.733.681l-.008 4.118h4.935c.554 0 .529-.557.529-.557V9.668l-6.955-6.186-7.384 6.186v7.745z" fill="#fff"/><path d="M0 9.093s.627 1.155 1.994 0l8.17-6.912 7.66 6.869c1.583 1.141 2.176 0 2.176 0L10.164.14 0 9.093zM17.639 2.164h-1.97l.008 2.39 1.962 1.664V2.164z" fill="#fff"/></svg>
